kora/actions/scalable/go-previous-context.svg

<svg xmlns="http://www.w3.org/2000/svg" style="fill-rule:evenodd;clip-rule:evenodd;stroke-linejoin:round;stroke-miterlimit:2" width="100%" height="100%" version="1.1" viewBox="0 0 16 16" xml:space="preserve">
 <defs>
  <style id="current-color-scheme" type="text/css">
   .ColorScheme-Text { color:#dfdfdf; } .ColorScheme-Highlight { color:#4285f4; } .ColorScheme-NeutralText { color:#ff9800; } .ColorScheme-PositiveText { color:#4caf50; } .ColorScheme-NegativeText { color:#f44336; }
  </style>
 </defs>
 <path style="fill:currentColor;fill-opacity:0.3" class="ColorScheme-Text" d="M16,2l0,12l-10,0l-6,-6l6,-6l10,0Z"/>
 <path style="fill:currentColor;" class="ColorScheme-Text" d="M12,4l-1,0l0,1l1,0c1,0 1,1 1,1l0,1c0,0 0,0.578 0.375,1c-0.375,0.422 -0.375,1 -0.375,1l0,1c0,0 0,1 -1,1l-1,0l0,1l1,0c2,0 2,-2 2,-2l0,-1c0,-0.5 0.5,-0.5 0.5,-0.5l0.5,0l0,-1l-0.5,0c0,0 -0.5,0 -0.5,-0.5l0,-1c0,0 0,-2 -2,-2Zm-2,0l-1,0c-2,0 -2,2 -2,2l0,1c0,0.5 -0.5,0.5 -0.5,0.5l-0.5,0l0,1l0.5,0c0,0 0.5,0 0.5,0.5l0,1c0,0 0,2 2,2l1,0l0,-1l-1,0c-1,0 -1,-1 -1,-1l0,-1c0,0 0,-0.578 -0.375,-1c0.375,-0.422 0.375,-1 0.375,-1l0,-1c0,0 0,-1 1,-1l1,0l0,-1Z"/>
</svg>

<svg xmlns="http://www.w3.org/2000/svg" width="16" height="16" version="1.1">
 <defs>
  <style id="current-color-scheme" type="text/css">
   .ColorScheme-Text { color:#dfdfdf; } .ColorScheme-Highlight { color:#4285f4; }
  </style>
 </defs>
 <path style="fill:currentColor" class="ColorScheme-Text" d="M 16,2 V 14 H 6 L 0,8 6,2 Z M 12,4 H 11 V 5 H 12 C 13,5 13,6 13,6 V 7 C 13,7 13,7.5784 13.375,8 13,8.4216 13,9 13,9 V 10 C 13,10 13,11 12,11 H 11 V 12 H 12 C 14,12 14,10 14,10 V 9 C 14,8.5 14.5,8.5 14.5,8.5 H 15 V 7.5 H 14.5 C 14.5,7.5 14,7.5 14,7 V 6 C 14,6 14,4 12,4 Z M 10,4 H 9 C 7,4 7,6 7,6 V 7 C 7,7.5 6.5,7.5 6.5,7.5 H 6 V 8.5 H 6.5 C 6.5,8.5 7,8.5 7,9 V 10 C 7,10 7,12 9,12 H 10 V 11 H 9 C 8,11 8,10 8,10 V 9 C 8,9 8,8.4216 7.625,8 8,7.5784 8,7 8,7 V 6 C 8,6 8,5 9,5 H 10 Z"/>
</svg>
